X: 1
T: The Colonel's Quickstep
C: Bill Clement
R: jig
Z: 2005 John Chambers <jc:trillian.mit.edu>
M: 6/8
L: 1/8
K: D
|: A \
| "D"d2d a2d | "D"fed a3 |  "D"fed "G"dcB | "D"Afd "A7"e2A \
| "D"d2d a2d | "D"fed a3 | "Bm"fed "G"dcB | "A7"Aec "D"d2 :|
|: A \
| "D"f2a a2f | "D"fed "G"B3 | "D"fed "G"dcB | "D"Afd "A7"e2A \
| "D"f2a a2f | "D"fed "G"B3 | "D"fed "G"dcB | "A7"Aec "D"d2 :|
